src/assets/outline/Previous.svg

<svg width="24" height="24" viewBox="0 0 24 24"  xmlns="http://www.w3.org/2000/svg">
<path d="M17.6901 20.0899C17.1201 20.0899 16.5601 19.9399 16.0401 19.6399L7.75009 14.8599C6.72009 14.2599 6.1001 13.1899 6.1001 11.9999C6.1001 10.8099 6.72009 9.73994 7.75009 9.13994L16.0401 4.35991C17.0701 3.75991 18.3001 3.75991 19.3401 4.35991C20.3801 4.95991 20.9901 6.01993 20.9901 7.21993V16.7899C20.9901 17.9799 20.3701 19.0499 19.3401 19.6499C18.8201 19.9399 18.2601 20.0899 17.6901 20.0899ZM17.6901 5.40993C17.3801 5.40993 17.0701 5.48992 16.7901 5.64992L8.50009 10.4299C7.94009 10.7599 7.6001 11.3399 7.6001 11.9899C7.6001 12.6399 7.94009 13.2199 8.50009 13.5499L16.7901 18.3299C17.3501 18.6599 18.0301 18.6599 18.5901 18.3299C19.1501 17.9999 19.4901 17.4199 19.4901 16.7699V7.19994C19.4901 6.54994 19.1501 5.96994 18.5901 5.63994C18.3101 5.49994 18.0001 5.40993 17.6901 5.40993Z" />
<path d="M3.75977 18.9301C3.34977 18.9301 3.00977 18.5901 3.00977 18.1801V5.82007C3.00977 5.41007 3.34977 5.07007 3.75977 5.07007C4.16977 5.07007 4.50977 5.41007 4.50977 5.82007V18.1801C4.50977 18.5901 4.16977 18.9301 3.75977 18.9301Z" />
</svg>

<?xml version="1.0" encoding="UTF-8"?>
<svg width="24" height="24" viewBox="0 0 24 24" xmlns="http://www.w3.org/2000/svg">
 <path d="m17.69 20.09c-0.57 0-1.13-0.15-1.65-0.45l-8.29-4.78c-1.03-0.6-1.65-1.67-1.65-2.86s0.61999-2.26 1.65-2.86l8.29-4.78c1.03-0.6 2.26-0.6 3.3 0s1.65 1.66 1.65 2.86v9.57c0 1.19-0.62 2.26-1.65 2.86-0.52 0.29-1.08 0.44-1.65 0.44zm0-14.68c-0.31 0-0.62 0.07999-0.9 0.23999l-8.29 4.78c-0.56 0.33-0.89999 0.91-0.89999 1.56s0.33999 1.23 0.89999 1.56l8.29 4.78c0.56 0.33 1.24 0.33 1.8 0s0.9-0.91 0.9-1.56v-9.57c0-0.65-0.34-1.23-0.9-1.56-0.28-0.14-0.59-0.23001-0.9-0.23001z"/>
 <path d="m3.7598 18.93c-0.41 0-0.75-0.34-0.75-0.75v-12.36c0-0.41 0.34-0.75 0.75-0.75s0.75 0.34 0.75 0.75v12.36c0 0.41-0.34 0.75-0.75 0.75z"/>
</svg>
